X:282
T:Little Johnny England
R:
M:4/4
K:G
G2 G>A B>c d2 | A2 A>c B>A G2 |
g2 g>g f>e d2 | e2 e2 d2 e>f |
g2 g>g f>e d2 | e2 e>e d4 |
G2 G>A B>c d2 | A2 A2 G4 ||
